X: 1569
T: Pençgâh Seyir
C: Rauf Yektâ
O: Turkey
F: http://compmusic.upf.edu/node/140
N: pencgah--seyir--semai--1--rauf_yekta
N: makam= pencgah
N: form= seyir
N: usul= semai = 3/4
M: 3/4
L: 1/16
K: C _1/4B ^f  
Q: 1/4=120
%%MIDI tuningsystem comma53
G8 d4  | d8 c2d2  | e8 d4  | d4 c4 B4  | z4 c4 d4  | \
w:   |   |   |   |   | 
e2=f2 e4 d4  | d4 c4 B2^A2  | 
w:   |   | 
B8 z4  | c4 d8  | d8 c2d2  | e8 d4  | d4 c4 B4  | \
w:   |   |   |   |   | 
z4 A4 B4  | c4 d4 c4  | B8 A4  | G8 z4  | 
w:   |   |   |   | 
G8 d4  | d8 e4  | d2^c2 =B4 c4  | d8 z4  | \
w:   |   |   |   | 
z4 e4 =f4  | g4 =f4 e4  | e4 d4 e4  | d4 c4 B4  | 
w:   |   |   |   | 
A8 B4  | c4 d4 e4  | d8 c4  | B4 A4 G4  | z4 A4 B4  | \
w:   |   |   |   |   | 
c4 d4 c4  | B8 A4  | G8 z4  | |


